X: 449
T: Dedicado a Joe
B: good tune book
B: tunes
M:4/4
R: reel
Q: 1/4=100
K:Bminor
V:1 
|:"Bm"B2Bc d2de|fgfd B3f-|"F#"fgfd c3f-|"Bm"fgfd B2F2|
 B3c d3e|fgfd B3f-|"F#"fgfe d2c2|
|1 "Bm"B4 "F#"F4:|2 "Bm"B4 "A"A4||
 K: Dmaj
 |:"D"d2fd fdfd|"G"g2dg d^gdg|"A"a3a a2a2-|a2g2 (3fef e2|a3a a2a2-|
 "A"a2g2 (3fef e2|1 "D"d2df dfdf|"A"cfcf BfA2:|2 "D"d3A "A"BABc|"D"d4 "F#"c4||
% abcbook-tune_id 63ce6af328bc13826dad241d
% abcbook-tune_composer_id 
% abcbook-link-0 https://www.youtube.com/watch?v=gpNH5ycH3Fg
% abcbook-link-title-0 Dedicado a Jos (Reel)
% abcbook-boost 2
% abcbook-difficulty 0
% abcbook-tags good tune book
% abcbook-tablature 
% abcbook-transpose 
% abcbook-tuning 
% abcbook-lastupdated 1675471509183
% abcbook-soundfonts 
% abcbook-repeats 1


